dist/svgs/crypto-icons/icons/bta.svg

<?xml version="1.0" encoding="UTF-8" standalone="yes"?>
<svg xmlns="http://www.w3.org/2000/svg" xmlns:xlink="http://www.w3.org/1999/xlink" width="512px" height="512px" viewBox="0 0 384 384" version="1.1">
  <g id="surface1">
    <path style=" stroke:none;fill-rule:nonzero;fill:rgb(0%,0%,0%);fill-opacity:1;" d="M 66.632812 230.195312 L 66.632812 0 L 17.761719 0 C 7.949219 0 0 7.949219 0 17.753906 L 0 65.828125 L 48.140625 65.828125 L 48.140625 152.855469 L 0 152.855469 L 0 366.015625 C 0 375.816406 7.953125 383.769531 17.761719 383.769531 L 172.402344 383.769531 C 110.570312 360.160156 66.632812 300.324219 66.632812 230.195312 Z M 353.5625 339.683594 L 291.792969 277.90625 C 302.128906 264.761719 308.34375 248.222656 308.34375 230.195312 C 308.34375 187.480469 273.714844 152.855469 231 152.855469 L 172.152344 152.855469 L 172.152344 65.828125 L 231 65.828125 C 300.355469 65.828125 359.636719 108.808594 383.773438 169.566406 L 383.773438 17.753906 C 383.773438 7.949219 375.820312 0 366.011719 0 L 153.660156 0 L 153.660156 230.195312 C 153.660156 272.910156 188.28125 307.539062 231 307.539062 C 249.023438 307.539062 265.5625 301.324219 278.710938 290.988281 L 340.484375 352.765625 C 325.554688 366.105469 308.320312 376.617188 289.617188 383.773438 L 366.011719 383.773438 C 375.820312 383.773438 383.773438 375.816406 383.773438 366.015625 L 383.773438 290.859375 C 376.640625 308.777344 366.417969 325.304688 353.5625 339.683594 Z M 353.5625 339.683594 "/>
  </g>
</svg>

<svg xmlns="http://www.w3.org/2000/svg" viewBox="0 0 384 384"><path d="M66.633 230.195V0H17.762C7.949 0 0 7.95 0 17.754v48.074h48.14v87.027H0v213.16c0 9.801 7.953 17.755 17.762 17.755h154.64c-61.832-23.61-105.77-83.446-105.77-153.575zm286.93 109.489l-61.77-61.778c10.336-13.144 16.55-29.683 16.55-47.71 0-42.716-34.628-77.34-77.343-77.34h-58.848V65.827H231c69.355 0 128.637 42.98 152.773 103.738V17.754C383.773 7.949 375.82 0 366.012 0H153.66v230.195c0 42.715 34.621 77.344 77.34 77.344 18.023 0 34.563-6.215 47.71-16.55l61.774 61.777a164.664 164.664 0 01-50.867 31.007h76.395c9.808 0 17.761-7.957 17.761-17.757v-75.157a164.57 164.57 0 01-30.21 48.825zm0 0"/></svg>
